X: 30
T:How We Spent the Christams (#230)
M:4/4
L:1/8
S:Capt. F. O'Neill
R:Reel
K:D
df|eA (3AAA BG (3GGG|(3AGA fe dB (3BBB|eA (3AAA BG (3GGG|Agfe d2:|
|:de|"tr"fdfa "tr"fdfa|eddf dB B2|1"tr"fdfa "tr"fdfa|
edeg d2:|2ABAF ABdf|afef d2||

